communes/3707.svg

<?xml version="1.0" encoding="UTF-8"?>
<!DOCTYPE svg  PUBLIC '-//W3C//DTD SVG 1.1//EN'  'http://www.w3.org/Graphics/SVG/1.1/DTD/svg11.dtd'>
<svg width="438" height="480" viewBox="21 15 438 480" xmlns="http://www.w3.org/2000/svg">
<metadata>
<rdf:RDF xmlns:dc="http://purl.org/dc/elements/1.1/" xmlns:rdf="http://www.w3.org/1999/02/22-rdf-syntax-ns#">
<rdf:Description dc:date="2006-10-26" dc:format="image/svg+xml" dc:language="de" dc:title="Wappen Lohn (CH-GR)">
<dc:creator rdf:resource="http://de.wikipedia.org/wiki/Benutzer:Bernina"/>
</rdf:Description>
</rdf:RDF>
</metadata>
<title>Wappen Lohn (CH-GR)</title>
<defs>
<clipPath id="a">
<path d="m360 4140a3240 3240 0 0 0 6480 0v-3870h-6480v3870z"/>
</clipPath>
<style type="text/css"><![CDATA[
  .Rand2 { stroke: #202020; stroke-width:30; }
  .Rand3 { stroke: #202020; stroke-width:45; }
  .Rand6 { stroke: #202020; stroke-width:90; }
  .Blau { fill: #0000ff; }
  .Rot { fill: #ff0000; }
  .Silber { fill: #ffffff; }
  ]]></style>
</defs>
<g transform="scale(.066667)" fill="none" fill-rule="evenodd" stroke-miterlimit="10" stroke-width="10">
<g clip-path="url(#a)">
<path class="Rot" d="m-225 3645h7650v-3825h-7650v3825z"/>
<path class="Silber" d="m-225 7470h7650v-3825h-7650v3825z"/>
<path class="Blau" d="m360 6165v1260h1620v-1260h-1620z"/>
<path class="Blau" d="m3600 6165v1260h1620v-1260h-1620z"/>
<path class="Blau" d="m1980 4905v1260h1620v-1260h-1620z"/>
<path class="Blau" d="m360 3645v1260h1620v-1260h-1620z"/>
<path class="Blau" d="m3600 3645v1260h1620v-1260h-1620z"/>
<path class="Blau" d="m5220 4905v1260h1620v-1260h-1620z"/>
<path class="Silber Rand2" d="m3600 450-314 894-934-174 618 720-618 720 934-174 314 894 316-894 932 174-618-720 618-720-932 174-316-894z"/>
<path class="Rand2" d="m3600 3645v3825"/>
<path class="Rand2" d="m1980 3645v3825"/>
<path class="Rand2" d="m5220 3645v3825"/>
<path class="Rand2" d="m-225 4905h7650"/>
<path class="Rand2" d="m-225 6165h7650"/>
<path class="Rand3" d="m7425 3645h-7650"/>
</g>
<path class="Rand6" d="m360 4140a3240 3240 0 0 0 6480 0v-3870h-6480v3870z"/>
</g>
</svg>

<?xml version="1.0" encoding="iso-8859-1"?>
<!DOCTYPE svg PUBLIC "-//W3C//DTD SVG 1.1//EN" "http://www.w3.org/Graphics/SVG/1.1/DTD/svg11.dtd">
<!-- Auto-generated by fig2svg tool
     Date: Thu Oct 26 13:16:34 2006 -->
<svg xmlns="http://www.w3.org/2000/svg"
     width="438" height="480" viewBox="21 15 438 480">
<metadata>
<rdf:RDF xmlns:rdf="http://www.w3.org/1999/02/22-rdf-syntax-ns#"
         xmlns:dc="http://purl.org/dc/elements/1.1/">
<rdf:Description
 dc:title="Wappen Lohn (CH-GR)"
 dc:date="2006-10-26"
 dc:format="image/svg+xml"
 dc:language="de">
<dc:creator rdf:resource="http://de.wikipedia.org/wiki/Benutzer:Bernina" />
</rdf:Description>
</rdf:RDF>
</metadata>
<title>
Wappen Lohn (CH-GR)
</title>
<defs>
<clipPath id="clippath">
<path d="M360,4140 A3240,3240 0.0 0 0 6840,4140 L6840,270 L360,270 L360,4140 Z" />
</clipPath>
<style type="text/css">
  <![CDATA[
  .Rand2 { stroke: #202020; stroke-width:30; }
  .Rand3 { stroke: #202020; stroke-width:45; }
  .Rand6 { stroke: #202020; stroke-width:90; }
  .Blau { fill: #0000ff; }
  .Rot { fill: #ff0000; }
  .Silber { fill: #ffffff; }
  ]]>
</style>
</defs>
<g stroke="none" stroke-miterlimit="10" stroke-width="10"
   stroke-linecap="butt" stroke-linejoin="miter"
   fill="none" fill-rule="evenodd" transform="scale(0.066667)">
<g clip-path="url(#clippath)">
<path id="feldo-1" class="Rot"
      d="M-225,3645 L7425,3645 L7425,-180 L-225,-180 L-225,3645 Z" />
<path id="feldu-1" class="Silber"
      d="M-225,7470 L7425,7470 L7425,3645 L-225,3645 L-225,7470 Z" />
<path id="schach-1" class="Blau"
      d="M360,6165 L360,7425 L1980,7425 L1980,6165 L360,6165 Z" />
<path id="schach-2" class="Blau"
      d="M3600,6165 L3600,7425 L5220,7425 L5220,6165 L3600,6165 Z" />
<path id="schach-3" class="Blau"
      d="M1980,4905 L1980,6165 L3600,6165 L3600,4905 L1980,4905 Z" />
<path id="schach-4" class="Blau"
      d="M360,3645 L360,4905 L1980,4905 L1980,3645 L360,3645 Z" />
<path id="schach-5" class="Blau"
      d="M3600,3645 L3600,4905 L5220,4905 L5220,3645 L3600,3645 Z" />
<path id="schach-6" class="Blau"
      d="M5220,4905 L5220,6165 L6840,6165 L6840,4905 L5220,4905 Z" />
<path id="stern-1" class="Silber Rand2"
      d="M3600,450 L3286,1344 L2352,1170 L2970,1890 L2352,2610 L3286,2436
         L3600,3330 L3916,2436 L4848,2610 L4230,1890 L4848,1170 L3916,1344
         L3600,450 Z" />
<path id="linies-1" class="Rand2" d="M3600,3645 L3600,7470" />
<path id="linies-2" class="Rand2" d="M1980,3645 L1980,7470" />
<path id="linies-3" class="Rand2" d="M5220,3645 L5220,7470" />
<path id="linies-4" class="Rand2" d="M-225,4905 L7425,4905" />
<path id="linies-5" class="Rand2" d="M-225,6165 L7425,6165" />
<path id="liniet-1" class="Rand3" d="M7425,3645 L-225,3645" />
</g>
<path id="clip-boundary" class="Rand6"
      d="M360,4140 A3240,3240 0.0 0 0 6840,4140 L6840,270 L360,270 L360,4140 Z" />
</g>
</svg>
